!!!SOCIAL_FUNCTION:	lightning songs
!!!PDT:	1932
!!!OTL: No_44_I_Have_Arrived_in_the_Sky.krn
!!!REG: Southwest
!!!LANG: Non-Tone
!!!LING_GROUP: Yuman-Cochimi
**kern
*staff1
=1-
*clefF4
*k[b-e-a-]
*M3/4
4BB-/
4E-\
8D-\L
8D-\J
=2||
*M2/4
8E-\L
8E-\J
4E-\
=3
(4.E-\
8D-\)
=4||
*M3/4
4E-\
4F\
8D-\L
8D-\J
=5||
*M2/4
8E-\L
8E-\J
4E-\
=6
4E-\
4r
=7
4E-\
4E-\
=8
4.E-\
8D-\
=9
8E-\L
8E-\J
4E-\
=10
4E-\
4r
=11||
*M3/4
4BB-/
4E-\
8D-\L
8D-\J
=12||
*M2/4
8E-\L
8E-\J
4E-\
=13
4E-\
4r
=14||
*M3/4
4BB-/
4E-\
8D-\L
8D-\J
=15||
*M2/4
8E-\L
8E-\J
4E-\
=16
4E-\
4r
=17
4E-\
4E-\
=18
4.E-\
8BB-/
=19
8E-\L
8E-\J
4E-\
=20
4E-\
4r
=21||
*M3/4
4E-\
4F\
8E-\L
8G\J
=22||
*M2/4
8F\L
8F\J
4F\
=23
(4.F\
8E-\)
=24||
*M3/4
4D-\
4E-\
8D-\L
8D-\J
=25||
*M2/4
8E-\L
8E-\J
4E-\
=26
4E-\
4r
=27||
*M3/4
4BB-/
4F\
8E-\L
8G\J
=28||
*M2/4
8F\L
8F\J
4F\
=29
(4.F\
8E-\)
=30||
*M3/4
4D\
4E-\
8D-\L
8D-\J
=31||
*M2/4
8E-\L
8E-\J
4E-\
=32
4E-\
4r
=33
8E-\L
8E-\J
4E-\
=34
4E-\
4r
=35
8E-\L
8E-\J
4E-\
=36
4E-\
4r
=37||
*M3/4
4BB-/
4E-\
8D-\L
8D-\J
=38||
*M2/4
8E-\L
8E-\J
4E-\
=39
4E-\
4r
=40||
*M3/4
4BB-/
4E-\
8D-\L
8D-\J
=41||
*M2/4
8E-\L
8E-\J
4E-\
=42
4E-\
4r
=43
4E-\
4E-\
=44
4.E-\
8D-\
=45
8E-\L
8E-\J
4E-\
=46
4E-\
4r
==
*-
